dist/svg/burger-line.svg

<svg xmlns="http://www.w3.org/2000/svg" viewBox="0 0 24 24"><path d="M11.336 3.283a9.66 9.66 0 0 0-5.377 2.1c-.746.596-1.678 1.636-1.915 2.137-.089.189-.104.274-.104.602 0 .361.008.399.151.687.237.48.646.794 1.181.906.3.064 13.156.064 13.456 0a1.65 1.65 0 0 0 1.181-.906c.143-.288.151-.326.151-.687 0-.328-.015-.413-.104-.602-.237-.501-1.169-1.541-1.915-2.137-1.266-1.012-2.822-1.717-4.374-1.982-.404-.069-1.601-.173-1.787-.155-.033.003-.278.02-.544.037m1.536 1.519a8.2 8.2 0 0 1 5.462 2.986c.391.485 1.172.432-6.334.432s-6.725.053-6.334-.432c1.335-1.652 3.325-2.749 5.414-2.984.44-.049 1.346-.05 1.792-.002m-3.067.477c-.391.095-.651.559-.526.939.1.303.417.54.721.54.384 0 .76-.375.76-.758 0-.237-.189-.551-.395-.657a.95.95 0 0 0-.56-.064m4 1c-.391.095-.651.559-.526.939.1.303.417.54.721.54.384 0 .76-.375.76-.758 0-.237-.189-.551-.395-.657a.95.95 0 0 0-.56-.064M2.7 10.817c-.248.111-.458.425-.458.683s.242.604.491.697c.158.06 18.376.06 18.534 0 .249-.093.491-.438.491-.697s-.242-.604-.491-.697c-.078-.03-2.896-.043-9.28-.041-7.589.001-9.188.01-9.287.055m3.16 2.45c-.044.01-.788.253-1.653.54-1.425.473-1.587.535-1.726.667a.73.73 0 0 0-.108.931.74.74 0 0 0 .474.321c.179.047.214.04.764-.138.318-.104.596-.188.618-.188s.053.105.067.234c.04.35.203.923.37 1.296.233.52.549.971.991 1.413A4.64 4.64 0 0 0 8.5 19.719c.497.056 7.045.054 7.52-.002 1.885-.224 3.434-1.492 3.996-3.27.122-.389.224-.937.224-1.209v-.191l.57-.19c.47-.156.596-.215.716-.335.317-.314.29-.834-.056-1.096-.159-.121-.429-.197-.579-.164-.061.014-.745.235-1.52.491l-1.409.466-1.991-.494-1.991-.493-1.99.499-1.99.499-1.982-.495c-1.091-.272-2.004-.493-2.03-.49a1 1 0 0 0-.128.022m10.182 2.014 1.981.494.329-.103c.384-.12.379-.127.245.314-.329 1.08-1.302 1.962-2.418 2.193-.429.089-7.373.091-7.834.003-.586-.112-1.059-.358-1.533-.798q-1.01-.939-1.027-2.163l-.005-.361.145-.036c.124-.03.438.037 2.12.455l1.975.491 1.98-.501c1.089-.276 1.998-.497 2.02-.492z" fill-rule="evenodd"/></svg>

<svg fill="none" xmlns="http://www.w3.org/2000/svg" viewBox="0 0 24 24"><path d="M11.336 3.283 C 9.404 3.406,7.504 4.148,5.959 5.383 C 5.213 5.979,4.281 7.019,4.044 7.520 C 3.955 7.709,3.940 7.794,3.940 8.122 C 3.940 8.483,3.948 8.521,4.091 8.809 C 4.328 9.289,4.737 9.603,5.272 9.715 C 5.572 9.779,18.428 9.779,18.728 9.715 C 19.263 9.603,19.672 9.289,19.909 8.809 C 20.052 8.521,20.060 8.483,20.060 8.122 C 20.060 7.794,20.045 7.709,19.956 7.520 C 19.719 7.019,18.787 5.979,18.041 5.383 C 16.775 4.371,15.219 3.666,13.667 3.401 C 13.263 3.332,12.066 3.228,11.880 3.246 C 11.847 3.249,11.602 3.266,11.336 3.283 M12.872 4.802 C 15.006 5.035,16.982 6.115,18.334 7.788 C 18.725 8.273,19.506 8.220,12.000 8.220 C 4.494 8.220,5.275 8.273,5.666 7.788 C 7.001 6.136,8.991 5.039,11.080 4.804 C 11.520 4.755,12.426 4.754,12.872 4.802 M9.805 5.279 C 9.414 5.374,9.154 5.838,9.279 6.218 C 9.379 6.521,9.696 6.758,10.000 6.758 C 10.384 6.758,10.760 6.383,10.760 6.000 C 10.760 5.763,10.571 5.449,10.365 5.343 C 10.220 5.269,9.967 5.240,9.805 5.279 M13.805 6.279 C 13.414 6.374,13.154 6.838,13.279 7.218 C 13.379 7.521,13.696 7.758,14.000 7.758 C 14.384 7.758,14.760 7.383,14.760 7.000 C 14.760 6.763,14.571 6.449,14.365 6.343 C 14.220 6.269,13.967 6.240,13.805 6.279 M2.700 10.817 C 2.452 10.928,2.242 11.242,2.242 11.500 C 2.242 11.759,2.484 12.104,2.733 12.197 C 2.891 12.257,21.109 12.257,21.267 12.197 C 21.516 12.104,21.758 11.759,21.758 11.500 C 21.758 11.241,21.516 10.896,21.267 10.803 C 21.189 10.773,18.371 10.760,11.987 10.762 C 4.398 10.763,2.799 10.772,2.700 10.817 M5.860 13.267 C 5.816 13.277,5.072 13.520,4.207 13.807 C 2.782 14.280,2.620 14.342,2.481 14.474 C 2.223 14.720,2.177 15.117,2.373 15.405 C 2.491 15.578,2.624 15.668,2.847 15.726 C 3.026 15.773,3.061 15.766,3.611 15.588 C 3.929 15.484,4.207 15.400,4.229 15.400 C 4.251 15.400,4.282 15.505,4.296 15.634 C 4.336 15.984,4.499 16.557,4.666 16.930 C 4.899 17.450,5.215 17.901,5.657 18.343 C 6.452 19.138,7.393 19.593,8.500 19.719 C 8.997 19.775,15.545 19.773,16.020 19.717 C 17.905 19.493,19.454 18.225,20.016 16.447 C 20.138 16.058,20.240 15.510,20.240 15.238 L 20.240 15.047 20.810 14.857 C 21.280 14.701,21.406 14.642,21.526 14.522 C 21.843 14.208,21.816 13.688,21.470 13.426 C 21.311 13.305,21.041 13.229,20.891 13.262 C 20.830 13.276,20.146 13.497,19.371 13.753 L 17.962 14.219 15.971 13.725 L 13.980 13.232 11.990 13.731 L 10.000 14.230 8.018 13.735 C 6.927 13.463,6.014 13.242,5.988 13.245 C 5.961 13.247,5.904 13.257,5.860 13.267 M16.042 15.281 L 18.023 15.775 18.352 15.672 C 18.736 15.552,18.731 15.545,18.597 15.986 C 18.268 17.066,17.295 17.948,16.179 18.179 C 15.750 18.268,8.806 18.270,8.345 18.182 C 7.759 18.070,7.286 17.824,6.812 17.384 C 6.139 16.758,5.797 16.037,5.785 15.221 L 5.780 14.860 5.925 14.824 C 6.049 14.794,6.363 14.861,8.045 15.279 L 10.020 15.770 12.000 15.269 C 13.089 14.993,13.998 14.772,14.020 14.777 C 14.042 14.783,14.952 15.010,16.042 15.281 " stroke="none" fill-rule="evenodd" fill="currentColor"/></svg>
